dist/img/icons/icon-bizkaia.svg

<svg viewBox="0 0 64.449 48.859" xmlns="http://www.w3.org/2000/svg"><g stroke="#fff" stroke-miterlimit="10"><path d="m1.989 16.771-1.397-5.371 25.249-10.852 16.223 7.52h8.918l10.851-4.512 2.042 5.372-18.588 21.166-6.446 18.265h-10.641v-5.05l-1.719-1.4-3.223 3.116-1.608-1.609 2.364-2.363-12.678-8.273 2.149-3.223-.645-.645-2.9 4.19-3.976-2.902 3.116-4.19 7.306.967.752-.86s-6.661-3.545-6.661-4.082 1.074-7.2 1.074-7.2l-3.868-1.072z" fill="#ddd"/><path d="m25.841.548-25.249 10.852 1.4 5.372 5.694-3.008s3.8 1.5 3.7 2.149h4.684v-2.795l2.686.108v5.157l5.7 3.33h5.694v-2.363l5.8-.538 4.01-11.719z" fill="#039e8e"/><g fill="#ddd"><path d="m63.875 8.928-2.042-5.372-10.851 4.512h-8.918l-2.104-.975-4.02 11.719-2.23.207 1.048 1.835-3.438 3.331 2.686 2.148 1.182-1.289 11.386 3.585z"/><path d="m12.84 28.912.645.645-2.149 3.223 12.678 8.273-2.364 2.363 1.612 1.612 3.223-3.116 1.719 1.4v5.05h10.637l6.446-18.265 1.287-1.465-11.386-3.588-1.182 1.289-2.686-2.148 3.438-3.331-1.048-1.835-3.572.331v2.363h-5.694l-5.695-3.33v-5.157l-2.686-.108v2.794h-4.684c-.3 1.907-.9 5.723-.9 6.124 0 .537 6.661 4.082 6.661 4.082l-.752.86-7.308-.967-3.116 4.189 3.975 2.9z"/></g></g></svg>

<svg xmlns="http://www.w3.org/2000/svg" viewBox="0 0 64.449 48.859"><title>icon-bizkaia</title><g id="Capa_2" data-name="Capa 2"><g id="Capa_1-2" data-name="Capa 1"><path d="M1.989,16.771.592,11.4,25.841.548l16.223,7.52h8.918L61.833,3.556l2.042,5.372L45.287,30.094,38.841,48.359H28.2v-5.05l-1.719-1.4-3.223,3.116L21.65,43.416l2.364-2.363L11.336,32.78l2.149-3.223-.645-.645-2.9,4.19L5.964,30.2l3.116-4.19,7.306.967.752-.86s-6.661-3.545-6.661-4.082,1.074-7.2,1.074-7.2L7.683,13.763Z" style="fill:#ddd;stroke:#fff;stroke-miterlimit:10"/><path d="M25.841.548.592,11.4l1.4,5.372,5.694-3.008s3.8,1.5,3.7,2.149h4.684V13.118l2.686.108v5.157l5.7,3.33h5.694V19.35l5.8-.538L39.96,7.093Z" style="fill:#039e8e;stroke:#fff;stroke-miterlimit:10"/><polygon points="63.875 8.928 61.833 3.556 50.982 8.068 42.064 8.068 39.96 7.093 35.94 18.812 33.71 19.019 34.758 20.854 31.32 24.185 34.006 26.333 35.188 25.044 46.574 28.629 63.875 8.928" style="fill:#ddd;stroke:#fff;stroke-miterlimit:10"/><path d="M12.84,28.912l.645.645L11.336,32.78l12.678,8.273L21.65,43.416l1.612,1.612,3.223-3.116,1.719,1.4v5.05H38.841l6.446-18.265,1.287-1.465L35.188,25.044l-1.182,1.289L31.32,24.185l3.438-3.331L33.71,19.019l-3.572.331v2.363H24.444l-5.695-3.33V13.226l-2.686-.108v2.794H11.379c-.3,1.907-.9,5.723-.9,6.124,0,.537,6.661,4.082,6.661,4.082l-.752.86L9.08,26.011,5.964,30.2l3.975,2.9Z" style="fill:#ddd;stroke:#fff;stroke-miterlimit:10"/></g></g></svg>
